img/yt-grey.svg

<svg width="22" height="21" viewBox="0 0 22 21" fill="none" xmlns="http://www.w3.org/2000/svg">
<g id="youtube">
<path id="Vector" d="M11.0871 20.9993H9.93888C9.86581 20.986 9.79332 20.9697 9.72025 20.9593C9.26734 20.8961 8.80863 20.8625 8.36326 20.7668C5.81166 20.2188 3.72398 18.9111 2.153 16.8274C0.297287 14.3675 -0.347574 11.5897 0.203921 8.56429C0.685827 5.9199 2.03064 3.76785 4.17051 2.14527C6.5551 0.337105 9.25748 -0.317614 12.2069 0.141675C14.3752 0.478603 16.2512 1.44009 17.8222 2.97222C19.5155 4.62458 20.5387 6.62353 20.8916 8.96907C20.9386 9.2857 20.9734 9.60407 21.0134 9.92128V11.0701C20.9676 11.4348 20.9346 11.8014 20.8743 12.1632C20.4753 14.5478 19.3937 16.5705 17.6186 18.2117C16.0778 19.6545 14.1283 20.5853 12.0376 20.8764C11.7215 20.9239 11.4032 20.9593 11.0871 20.9993ZM10.5333 6.54621C9.35781 6.54621 8.18175 6.52591 7.00685 6.552C6.47334 6.55814 5.96331 6.77233 5.58539 7.14895C5.20746 7.52558 4.99152 8.03487 4.98354 8.56835C4.95803 9.85305 4.95803 11.1381 4.98354 12.4236C4.99136 12.9535 5.2043 13.4598 5.57761 13.8361C5.95091 14.2123 6.45552 14.4292 6.98539 14.4411C7.99618 14.4684 9.00812 14.4527 10.0195 14.4527C11.3533 14.4527 12.6871 14.4695 14.0174 14.4417C14.5548 14.4359 15.0683 14.219 15.4472 13.8379C15.8261 13.4567 16.0399 12.9419 16.0424 12.4045C16.0649 11.1333 16.0649 9.86194 16.0424 8.59039C16.0397 8.05321 15.8262 7.53858 15.4477 7.15732C15.0693 6.77606 14.5563 6.55869 14.0191 6.552C12.8581 6.52591 11.696 6.54621 10.5333 6.54621Z" fill="#707070"/>
<path id="Vector_2" d="M11.9572 10.4966L9.08374 12.169V8.82526L11.9572 10.4966Z" fill="#707070"/>
</g>
</svg>

<svg width="22" height="21" fill="none" xmlns="http://www.w3.org/2000/svg"><g fill="#707070"><path d="M11.087 21H9.94c-.073-.014-.146-.03-.219-.04-.453-.064-.911-.098-1.357-.193-2.551-.548-4.639-1.856-6.21-3.94-1.856-2.46-2.5-5.237-1.95-8.263.483-2.644 1.828-4.796 3.968-6.419C6.555.337 9.257-.318 12.207.142c2.168.337 4.044 1.298 5.615 2.83 1.694 1.653 2.717 3.652 3.07 5.997.047.317.081.635.121.952v1.15c-.045.364-.078.73-.139 1.092-.399 2.385-1.48 4.407-3.255 6.049a10.23 10.23 0 01-5.581 2.664c-.316.048-.635.083-.95.123zm-.554-14.454c-1.175 0-2.351-.02-3.526.006a2.047 2.047 0 00-2.023 2.016 97.115 97.115 0 000 3.856 2.049 2.049 0 002.001 2.017c1.011.027 2.023.012 3.035.012 1.333 0 2.667.017 3.997-.011a2.047 2.047 0 002.025-2.037c.023-1.272.023-2.543 0-3.815a2.049 2.049 0 00-2.023-2.038c-1.16-.026-2.323-.006-3.486-.006z"/><path d="M11.957 10.497l-2.873 1.672V8.825l2.873 1.672z"/></g></svg>
